X: 118
T:Brenda Stubbert's Reel
C:Jerry Holland, Cape Breton
N:the way it's played around Edinburgh - I've never seen an
N:intelligible written copy and only heard Brenda play it once
G:Cape Breton reel for fiddle
M:4/4
L:1/8
Q:1/2=112
K:AMin
% dorian/minor hexatonic
   B|A2BA GAAB|A2Bd eddB|G2BA BGGB|c2BA BGG
   B|A2BA GAAB|A2Bd edda|gedB GABd|e2dB BAA:|
   B|A2a2 A2g2|Aage aged|G2BA BGGB|c2BA BGG
[1 B|A2a2 A2g2|Aage agea|gedB GABd|e2dB BAA:|
[2 B|A2BA GAAB|A2Bd edda|gedB GABd|e2dB BAA|]

...like this one...

